X: 32
T:Longford Collector, The
M:C|
L:1/8
R:reel
K:G
~G3A Bcdg|eB~B2 eBdB|GFGA BcdB|AcBA GEDE|
GFGA Bcdg|eB~B2 d2ef|g2af gedB|1 AcBA GEDE:|2 AcBA GED2||
|:~g3a gedB|GB~B2 GABd|~g2af gedB|AcBA GED2|
~g3a gedg|eB~B2 d2ef|~g2af gedB|1 AcBA GED2:|2 AcBA GEDE||

